svg/drive.svg

<svg width="24" height="24" viewBox="0 0 24 24"  xmlns="http://www.w3.org/2000/svg">
<path d="M12 1.99979L14.3535 4.35334L13.6464 5.06045L12 3.414L10.3535 5.06045L9.64642 4.35334L12 1.99979Z" />
<path d="M12 15.0004L9.64647 12.6469L10.3536 11.9398L12 13.5862L13.6465 11.9398L14.3536 12.6469L12 15.0004Z" />
<path d="M16.2132 10.8517L18.5667 8.49815L16.2132 6.14459L15.5061 6.8517L17.1525 8.49815L15.5061 10.1446L16.2132 10.8517Z" />
<path d="M5.43323 8.49816L7.78678 6.14461L8.49389 6.85172L6.84744 8.49816L8.49389 10.1446L7.78678 10.8517L5.43323 8.49816Z" />
<path fill-rule="evenodd" clip-rule="evenodd" d="M10 18C10 20.2091 8.20914 22 6 22C3.79086 22 2 20.2091 2 18C2 15.7909 3.79086 14 6 14C8.20914 14 10 15.7909 10 18ZM5.25 21V15H6.75V21H5.25Z" />
<path d="M18 20C19.1046 20 20 19.1046 20 18C20 16.8954 19.1046 16 18 16C16.8954 16 16 16.8954 16 18C16 19.1046 16.8954 20 18 20Z" />
<path fill-rule="evenodd" clip-rule="evenodd" d="M18 22C20.2091 22 22 20.2091 22 18C22 15.7909 20.2091 14 18 14C15.7909 14 14 15.7909 14 18C14 20.2091 15.7909 22 18 22ZM18 21C19.6569 21 21 19.6569 21 18C21 16.3431 19.6569 15 18 15C16.3431 15 15 16.3431 15 18C15 19.6569 16.3431 21 18 21Z" />
</svg>

<svg width="24" height="24" viewBox="0 0 24 24" xmlns="http://www.w3.org/2000/svg"><path d="M12 2l2.354 2.353-.708.707L12 3.414 10.354 5.06l-.708-.707L12 2zM12 15l-2.354-2.353.708-.707L12 13.586l1.646-1.646.708.707L12 15zM16.213 10.852l2.354-2.354-2.354-2.353-.707.707 1.646 1.646-1.646 1.647.707.707zM5.433 8.498l2.354-2.353.707.707-1.647 1.646 1.647 1.647-.707.707-2.354-2.354z"/><path fill-rule="evenodd" clip-rule="evenodd" d="M10 18a4 4 0 1 1-8 0 4 4 0 0 1 8 0zm-4.75 3v-6h1.5v6h-1.5z"/><path d="M18 20a2 2 0 1 0 0-4 2 2 0 0 0 0 4z"/><path fill-rule="evenodd" clip-rule="evenodd" d="M18 22a4 4 0 1 0 0-8 4 4 0 0 0 0 8zm0-1a3 3 0 1 0 0-6 3 3 0 0 0 0 6z"/></svg>
